resources/svg/clear-option.svg

<svg xmlns="http://www.w3.org/2000/svg" viewBox="0 0 24 24" fill="currentColor"><path fill="none" stroke="currentColor" stroke-width="2" d="M10,4 C10,2.8954305 10.8954305,2 12,2 C13.1045695,2 14,2.8954305 14,4 L14,10 L20,10 L20,14 L4,14 L4,10 L10,10 L10,4 Z M4,14 L20,14 L20,22 L12,22 L4,22 L4,14 Z M16,22 L16,16.3646005 M8,22 L8,16.3646005 M12,22 L12,16.3646005"/></svg>

<svg viewBox="0 0 24 24"><path fill="none" stroke="currentColor" stroke-width="2" d="M10 4a2 2 0 1 1 4 0v6h6v4H4v-4h6V4zM4 14h16v8H4v-8zm12 8v-5.635M8 22v-5.635M12 22v-5.635"/></svg>
